packages/icons/assets/Job.svg

<svg xmlns="http://www.w3.org/2000/svg" viewBox="0 0 16 16"><path fill="#414141" d="m1.3515 7.3555 3.5-3.5 2.148 2.144v-5h-5l2.146 2.147-3.5 3.5zm4.648-5.356v1.586l-1.585-1.586zm9.355 7.364-.707-.707-3.5 3.5-2.16-2.157v5h5l-2.133-2.134zm-5.367 4.636v-1.586l1.585 1.586zm.012-6.987h5v-5l-2.134 2.134-3.5-3.5-.707.707 3.5 3.5zm4-2.586v1.586h-1.585zm-8 4.561h-5v5l2.134-2.134 3.5 3.5.707-.707-3.5-3.5zm-4 2.585v-1.585h1.586z"/></svg>

<svg xmlns="http://www.w3.org/2000/svg" viewBox="0 0 16 16"><path fill="#414141" d="m1.35 7.36 3.5-3.5L7 6V1H2l2.15 2.15-3.5 3.5zM6 2v1.59L4.4 2zm9.35 7.36-.7-.7-3.5 3.5L8.99 10v5h5l-2.14-2.13zM10 14v-1.59L11.57 14zm0-6.99h5v-5l-2.13 2.14-3.5-3.5-.71.7 3.5 3.5zm4-2.58V6h-1.59zM6 8.99H1v5l2.13-2.14 3.5 3.5.71-.7-3.5-3.5zm-4 2.58V10h1.59z"/></svg>
